X:1
T:Heebie Jeebies
C:Boyd Atkins
R:(Med.)
M:4/4
L:1/8
K:G
"D7"B2 BA B d3|zA BA B d3|"G6"E2 ED G4|"/"zD "/"ED "Bbo7"E G3|
"D7"F4 "A7/E"G4|"Fo7"^G G2 A-"D7/F#"A4|"G6"=G4 "E7"B4|"A7"B B2 "D7"A-A4|
"(D7)"B2 BA B d3|zA BA B d3|"G6"E2 ED G4|"/"zD "/"ED "G7"E G3|
"C6"A A2 _B-"C#o7"B2 B2|"G/D"=B e2 E-"E7"E4|"A7"BABA "D7"d B3|"G6"G2 B^A "E7"B E3|
"A7"B=ABA "D7"d B3|"G6"G6 "(G#o7)"y2B2|]
